X:1
T:Young Banker
B:Journal of the English Folk Dance and Song Society, Dec 1936
S:Charles Lolley, from Frank Kidson's manuscripts
Z:Anne G Gilchrist/Frank Kidson
F:http://www.folkinfo.org/songs
M:4/4     %Meter
L:1/8     %
K:G
D2 |G2 B,2 D2 (G3/2A/) |B3/2 G/ A3/2 F/ G3 
w:Young Bank-er he has_ got a pre-ty face, 
D |G3/2 A/ B3/2 c/ d2 G2 | F2 E2 D3 
w:And all a-round his hat he wears gold lace;
D |G3 G A3 A |B2 d2 c3
w: And such a hand-some head of hair 
 c |(B3/2A/) G3/2 A/ B2 A2 | G3/2 F/ E3/2 F/ G2  |]
w:That I_ will not go if Bank-er is not there. 